icons/SVG-Light.svg

<svg xmlns="http://www.w3.org/2000/svg" width="256" height="256" fill="none" viewBox="0 0 256 256"><rect width="256" height="256" fill="#F4F2ED" rx="60"/><path fill="#000" d="M17 120H237.641V193.109C237.641 210.289 223.605 223.445 205.285 223.445H49.3555C31.0312 223.445 17 210.289 17 193.109V120Z"/><path fill="#FFB13B" stroke="#000" stroke-width="28.695" d="M61.6328 108.908C54.8086 102.506 43.7422 102.506 36.918 108.908C30.0938 115.307 30.0938 125.682 36.918 132.084C43.7422 138.482 54.8086 138.482 61.6328 132.084H192.848C199.676 138.482 210.738 138.482 217.566 132.084C224.391 125.682 224.391 115.307 217.566 108.908C210.738 102.506 199.676 102.506 192.848 108.908H61.6328Z"/><path fill="#FFB13B" stroke="#000" stroke-width="28.725" d="M89.5898 68.8027C89.5898 59.7481 81.7656 52.4121 72.1133 52.4121C62.457 52.4121 54.6328 59.7481 54.6328 68.8027C54.6328 77.8535 62.457 85.1894 72.1133 85.1894L164.895 172.189C164.895 181.24 172.719 188.576 182.371 188.576C192.023 188.576 199.848 181.24 199.848 172.189C199.848 163.139 192.023 155.803 182.371 155.803L89.5898 68.8027Z"/><path fill="#FFB13B" stroke="#000" stroke-width="28.695" d="M139.602 58.9785C146.426 52.5762 146.426 42.2012 139.602 35.7988C132.773 29.4004 121.707 29.4004 114.883 35.7988C108.059 42.2012 108.059 52.5762 114.883 58.9785L114.883 182.014C108.059 188.412 108.059 198.791 114.883 205.189C121.707 211.592 132.773 211.592 139.602 205.189C146.426 198.791 146.426 188.412 139.602 182.014V58.9785Z"/><path fill="#FFB13B" stroke="#000" stroke-width="28.725" d="M182.371 85.1895C192.023 85.1895 199.848 77.8536 199.848 68.8028C199.848 59.7481 192.023 52.4122 182.371 52.4122C172.719 52.4122 164.895 59.7481 164.895 68.8028L72.1133 155.803C62.457 155.803 54.6328 163.139 54.6328 172.189C54.6328 181.24 62.457 188.576 72.1133 188.576C81.7656 188.576 89.5898 181.24 89.5898 172.189L182.371 85.1895Z"/><path fill="#FFB13B" d="M61.6328 108.908C54.8086 102.506 43.7422 102.506 36.918 108.908C30.0938 115.307 30.0938 125.682 36.918 132.084C43.7422 138.482 54.8086 138.482 61.6328 132.084H192.848C199.676 138.482 210.738 138.482 217.566 132.084C224.391 125.682 224.391 115.307 217.566 108.908C210.738 102.506 199.676 102.506 192.848 108.908H61.6328Z"/><path fill="#FFB13B" d="M89.5898 68.8027C89.5898 59.748 81.7656 52.4121 72.1133 52.4121C62.457 52.4121 54.6328 59.748 54.6328 68.8027C54.6328 77.8535 62.457 85.1895 72.1133 85.1895L164.895 172.189C164.895 181.24 172.719 188.576 182.371 188.576C192.023 188.576 199.848 181.24 199.848 172.189C199.848 163.139 192.023 155.803 182.371 155.803L89.5898 68.8027Z"/><path fill="#FFB13B" d="M139.602 58.9785C146.426 52.5762 146.426 42.2012 139.602 35.7988C132.773 29.4004 121.707 29.4004 114.883 35.7988C108.059 42.2012 108.059 52.5762 114.883 58.9785V182.014C108.059 188.412 108.059 198.791 114.883 205.189C121.707 211.592 132.773 211.592 139.602 205.189C146.426 198.791 146.426 188.412 139.602 182.014V58.9785Z"/><path fill="#FFB13B" d="M182.371 85.1895C192.023 85.1895 199.848 77.8535 199.848 68.8027C199.848 59.748 192.023 52.4121 182.371 52.4121C172.719 52.4121 164.895 59.748 164.895 68.8027L72.1133 155.803C62.457 155.803 54.6328 163.139 54.6328 172.189C54.6328 181.24 62.457 188.576 72.1133 188.576C81.7656 188.576 89.5898 181.24 89.5898 172.189L182.371 85.1895Z"/><path fill="#000" fill-opacity=".9" d="M17 121H237.641V194.109C237.641 211.289 223.605 224.445 205.285 224.445H49.3555C31.0312 224.445 17 211.289 17 194.109V121Z"/><path fill="#fff" d="M50.0273 172.135C44.8516 167.283 41.6484 160.584 41.6484 153.186C41.6484 138.381 54.457 126.377 70.2383 126.377C86.0273 126.377 98.832 138.381 98.832 153.186H82.0859C82.0859 147.053 76.7773 142.084 70.2383 142.084C63.6992 142.084 58.3984 147.053 58.3984 153.186C58.3984 156.248 59.7266 159.025 61.8594 161.025H61.8672C64.0117 163.045 65.7969 163.627 70.2383 164.291C78.1367 165.061 85.2813 167.291 90.457 172.143C95.6328 176.998 98.832 183.697 98.832 191.096C98.832 205.9 86.0273 217.908 70.2383 217.908C54.457 217.908 41.6484 205.9 41.6484 191.096H58.3984C58.3984 197.229 63.6992 202.205 70.2383 202.205C76.7773 202.205 82.0859 197.229 82.0859 191.096C82.0859 188.033 80.7617 185.264 78.625 183.256H78.6172C76.4727 181.244 73.3945 180.553 70.2383 179.998V179.994C62.582 178.893 55.2031 176.99 50.0273 172.135Z"/><path fill="#fff" d="M156.016 126.377L135.789 217.908H119.043L98.832 126.377H115.582L127.434 179.986L139.266 126.377H156.016Z"/><path fill="#fff" d="M184.613 164.291H213.199V191.096H213.207C213.207 205.904 200.402 217.912 184.613 217.912C168.82 217.912 156.023 205.904 156.023 191.096V153.186H156.016C156.016 138.381 168.82 126.381 184.613 126.381C200.395 126.381 213.199 138.381 213.199 153.186H196.453C196.453 147.061 191.145 142.084 184.613 142.084C178.07 142.084 172.77 147.061 172.77 153.186V191.096C172.77 197.229 178.07 202.201 184.613 202.201C191.145 202.201 196.445 197.229 196.453 191.104V180.002H184.613V164.291Z"/></svg>

<svg xmlns="http://www.w3.org/2000/svg" width="256" height="256" fill="none" viewBox="0 0 256 256"><rect width="256" height="256" fill="#F4F2ED" rx="60"/><path fill="#000" d="M17 120h220.64v73.1c0 17.19-14.03 30.35-32.35 30.35H49.35C31.03 223.45 17 210.29 17 193.1z"/><path fill="#FFB13B" stroke="#000" stroke-width="28.7" d="M61.63 108.9a18.3 18.3 0 0 0-24.71 0 15.7 15.7 0 0 0 0 23.18 18.3 18.3 0 0 0 24.71 0h131.22a18.3 18.3 0 0 0 24.72 0 15.7 15.7 0 0 0 0-23.17 18.3 18.3 0 0 0-24.72 0z"/><path fill="#FFB13B" stroke="#000" stroke-width="28.73" d="M89.59 68.8c0-9.05-7.82-16.39-17.48-16.39s-17.48 7.34-17.48 16.4c0 9.04 7.83 16.38 17.48 16.38l92.79 87c0 9.05 7.82 16.39 17.47 16.39s17.48-7.34 17.48-16.4c0-9.04-7.83-16.38-17.48-16.38z"/><path fill="#FFB13B" stroke="#000" stroke-width="28.7" d="M139.6 58.98a15.7 15.7 0 0 0 0-23.18 18.3 18.3 0 0 0-24.72 0 15.7 15.7 0 0 0 0 23.18V182a15.7 15.7 0 0 0 0 23.18 18.3 18.3 0 0 0 24.72 0 15.7 15.7 0 0 0 0-23.18z"/><path fill="#FFB13B" stroke="#000" stroke-width="28.73" d="M182.37 85.19c9.65 0 17.48-7.34 17.48-16.39s-7.83-16.39-17.48-16.39-17.47 7.34-17.47 16.4l-92.79 87c-9.65 0-17.48 7.33-17.48 16.38s7.83 16.39 17.48 16.39 17.48-7.34 17.48-16.4z"/><path fill="#FFB13B" d="M61.63 108.9a18.3 18.3 0 0 0-24.71 0 15.7 15.7 0 0 0 0 23.18 18.3 18.3 0 0 0 24.71 0h131.22a18.3 18.3 0 0 0 24.72 0 15.7 15.7 0 0 0 0-23.17 18.3 18.3 0 0 0-24.72 0z"/><path fill="#FFB13B" d="M89.59 68.8c0-9.05-7.82-16.39-17.48-16.39s-17.48 7.34-17.48 16.4c0 9.04 7.83 16.38 17.48 16.38l92.79 87c0 9.05 7.82 16.39 17.47 16.39s17.48-7.34 17.48-16.4c0-9.04-7.83-16.38-17.48-16.38z"/><path fill="#FFB13B" d="M139.6 58.98a15.7 15.7 0 0 0 0-23.18 18.3 18.3 0 0 0-24.72 0 15.7 15.7 0 0 0 0 23.18V182a15.7 15.7 0 0 0 0 23.18 18.3 18.3 0 0 0 24.72 0 15.7 15.7 0 0 0 0-23.18z"/><path fill="#FFB13B" d="M182.37 85.19c9.65 0 17.48-7.34 17.48-16.39s-7.83-16.39-17.48-16.39-17.47 7.34-17.47 16.4l-92.79 87c-9.65 0-17.48 7.33-17.48 16.38s7.83 16.39 17.48 16.39 17.48-7.34 17.48-16.4z"/><path fill="#000" fill-opacity=".9" d="M17 121h220.64v73.1c0 17.19-14.03 30.35-32.35 30.35H49.35C31.03 224.45 17 211.29 17 194.1z"/><path fill="#fff" d="M50.03 172.14a26 26 0 0 1-8.38-18.95c0-14.8 12.8-26.81 28.59-26.81s28.6 12 28.6 26.8H82.08c0-6.13-5.31-11.1-11.85-11.1s-11.84 4.97-11.84 11.1c0 3.07 1.33 5.84 3.46 7.84 2.15 2.02 3.94 2.6 8.38 3.27 7.9.77 15.04 3 20.22 7.85a26 26 0 0 1 8.37 18.96c0 14.8-12.8 26.8-28.6 26.8-15.77 0-28.58-12-28.58-26.8H58.4c0 6.13 5.3 11.1 11.84 11.1s11.85-4.97 11.85-11.1a10.7 10.7 0 0 0-3.47-7.84c-2.15-2.02-5.23-2.7-8.38-3.26-7.66-1.1-15.04-3.01-20.21-7.87m105.99-45.75-20.23 91.53h-16.75l-20.2-91.53h16.74l11.85 53.6 11.84-53.6zm28.59 37.92h28.59v26.8c0 14.8-12.8 26.81-28.59 26.81s-28.59-12-28.59-26.81v-37.91c0-14.8 12.8-26.8 28.6-26.8 15.78 0 28.58 12 28.58 26.8h-16.75c0-6.13-5.3-11.1-11.84-11.1s-11.84 4.97-11.84 11.1v37.9c0 6.14 5.3 11.11 11.84 11.11s11.83-4.97 11.84-11.1V180h-11.84z"/></svg>
